app/images/icon/design-item-1.svg

<svg width="56" height="56" fill="none" xmlns="http://www.w3.org/2000/svg">
    <path fill="#0037A1" d="M0 0h56v56H0z"/>
    <path d="M28.42 35.42c-1.42 1.98-3.41 2.97-5.97 2.97-2.56 0-4.55-.99-5.97-2.97-1.42-1.98-2.13-4.62-2.13-7.92s.71-5.94 2.13-7.92c1.42-1.98 3.41-2.97 5.97-2.97 2.56 0 4.55.99 5.97 2.97 1.42 1.98 2.13 4.62 2.13 7.92s-.71 5.94-2.13 7.92Zm-9.9-1.89c.92 1.42 2.23 2.13 3.93 2.13 1.7 0 3.01-.71 3.93-2.13.94-1.42 1.41-3.43 1.41-6.03s-.47-4.61-1.41-6.03c-.92-1.44-2.23-2.16-3.93-2.16-1.7 0-3.01.71-3.93 2.13-.92 1.42-1.38 3.44-1.38 6.06 0 2.6.46 4.61 1.38 6.03ZM37.25 17h2.4v21h-2.76V20l-4.47 1.32-.69-2.4L37.25 17Z" fill="#fff"/>
</svg>

<svg width="56" height="56" viewBox="0 0 56 56" fill="none" xmlns="http://www.w3.org/2000/svg">
<rect width="56" height="56" fill="#0037A1"/>
<path d="M28.42 35.42C27 37.4 25.01 38.39 22.45 38.39C19.89 38.39 17.9 37.4 16.48 35.42C15.06 33.44 14.35 30.8 14.35 27.5C14.35 24.2 15.06 21.56 16.48 19.58C17.9 17.6 19.89 16.61 22.45 16.61C25.01 16.61 27 17.6 28.42 19.58C29.84 21.56 30.55 24.2 30.55 27.5C30.55 30.8 29.84 33.44 28.42 35.42ZM18.52 33.53C19.44 34.95 20.75 35.66 22.45 35.66C24.15 35.66 25.46 34.95 26.38 33.53C27.32 32.11 27.79 30.1 27.79 27.5C27.79 24.9 27.32 22.89 26.38 21.47C25.46 20.03 24.15 19.31 22.45 19.31C20.75 19.31 19.44 20.02 18.52 21.44C17.6 22.86 17.14 24.88 17.14 27.5C17.14 30.1 17.6 32.11 18.52 33.53ZM37.2505 17H39.6505V38H36.8905V20L32.4205 21.32L31.7305 18.92L37.2505 17Z" fill="white"/>
</svg>
